X:1
T:Fugue in G minor
T:BWV 1000
T:J. S. Bach
%%score { ( 1 3 ) | ( 2 4 ) }
L:1/8
M:4/4
K:Bb
V:1 treble nm="Harp"
V:3 treble 
V:2 bass 
V:4 bass 
V:1
 z DDD DC/B,/ CA, | B,2 E2 A,2 D2 | DC/=B,/ C3 C C_B,/A,/ | B,2 A, z z GGG | GF/E/ FF E2 ED/C/ | %5
 DDDD DC/B,/ CA, | B,2 E2 C2 D2 | D2 z2 z4 | z8 | E/G,/C/D/ E/G/C/B,/ A,/C/E/G/ F/E/D/C/ | %10
 D/A,/B,/^F,/ G,/B,/D/=F,/ =E,/G,/B,/D/ C/A,/B,/G,/ | %11
 ^F,/A,/C/E/ D/C/B,/A,/ B,/G,/D/=F,/ z/ D/G/C/ | ^FBBB BA/G/ AA | _A/G/A/^F/ G=F EDC_B, | %14
 C/^F,/F,/G,/ G,2- G,/G,/C/E/ z/ G,/A,/F,/ | z ddd dc/B/ cA | B2 e2 A2 d2 | dc c2 cB/A/ B2 | %18
 A2 d4 c2 | cBBB BA/G/ AB/A/ | G2 c2- cABB | A2 d4 c2 | F2 A2 AFGA | BA G2- GF/=E/ FF | %24
 F=E/D/ E2 D3 D | D2 ^C>D D4 | z8 | z z4 CCC | CB,/A,/ B,C/B,/ A,2 D2 | D=E/F/ E/D/^C/D/ CAAA | %30
 AG/F/ GG GF/=E/ FF | BAA_A A=AA^F | ^FGG=E E=FFD | z4 z B/_A/ =A2- | AB/_A/ =A^c d=ccB | %35
 BAA^c cddG | GAF=E E2 E2 | =EEEE AGAF | GGGG GFG=E | F=EFG ABAG | F=EFG AGA=B | ^c=Bcd =eded | %42
 ^c=Bcd =edec | z/ D/F/A/ d/A/F/D/ z/ d/c/B/ c/A/^F/D/ | %44
 z/ G,/B,/D/ G/D/B,/G,/ z/ G/F/E/ F/D/=B,/G,/ | z/ C/E/G/ c/G/E/C/ z/ c/B/A/ B/G/=E/C/ | %46
 z/ C/F/G/ _A/F/D/B,/ z/ B,/E/F/ G/E/C/A,/ | F/D/=B,/G,/ E/C/_A,/F,/ D/_B,/G,/E,/ C/A,/F,/D,/ | %48
 z/ D/F/=B/ d/B/F/D/ z/ D/F/B/ d/B/F/D/ | z/ C/E/G/ c/G/E/C/ z/ C/E/G/ c/G/E/C/ | %50
 z/ C/E/G/ c/G/E/C/ z/ C/E/G/ c/G/E/C/ | z/ D/^F/A/ c/A/F/D/ z/ D/_G/A/ c/A/G/D/ | %52
 z/ C/E/G/ c/e/^c/=B/ =c/ z/ z z2 | !fermata!F z c4 =Bd- | dGGG GF/E/ FD | ED/C/ ^C=B, =C>D B,>C | %56
 C2 z2 z4 | z8 | z FFF FE/D/ E/C/F/E/ | DBBB BA/G/ A=B | cccc cB/A/ Bc/G/ | AF GA/G/ FG/F/ E-E/F/ | %62
 DDDD DE/D/ CB, | A,FFF FG/F/ ED | GA/B/ B/A/G/F/ BF E/D/C/B,/ | %65
 z/ D/C/D/ B,/D/A,/D/ G,/D/F,/D/ E,/D/D,/D/ | z/ D/G/F/ E/D/C/B,/ A,/C/G,/C/ ^F,/C/=E,/C/ | %67
 z/ C/A/C/ B,/A,/B,/G,/ z/ _A,/F/A,/ G,/F,/G,/E,/ | %68
 z/ F,/D/F,/ E,/D,/E,/C,/ z/ D,/B,/D,/ z/ E,/C/=E,/ | %69
 ^F,/D,/A,/F,/ C/A,/E/C/ ^F/E/A/F/ E/C/A,/F,/ | z/ C/^F/C/ F/C/A/C/ z/ C/F/C/ F/C/A/C/ | %71
 z/ B,/D/B,/ D/B,/G/B,/ z/ B,/D/B,/ D/B,/G/B,/ | z/ A,/^F/D/ F/D/c/D/ z/ D/F/D/ F/D/c/D/ | %73
 z/ D/G/D/ G/D/B/D/ z/ D/G/D/ G/D/B/D/ | z/ ^C/=E/C/ E/C/B/C/ z/ C/E/C/ E/C/B/C/ | Dddd dc/B/ cc | %76
 cB/A/ BB BAAG | ^FGG=E E=FFD | DE/D/ E/^F/A/A,/ ^CD/C/ D/=E/=F/=C/ | %79
 =B,/_A/G/F/ G/D/E/B,/ C/A/G/F/ G/D/E/C/ | ^F,/A,/C/E/ D/C/A/C/ D/E/A,/B,/ C/F,/G,/A,/ | %81
 z DDD DC/=B,/ CA | CC/B,/ CA z B,/A,/ B,G | B>A G/^F/G/A/ FGGG | G2 ^F2 =F2 E2 | EDDB G2 _A/^F/G | %86
 ^F3 F GABF | ^FGGG G>A F>G | z/ G,/B,/D/ G/D/B,/G,/ A,/G/F/E/ F/D/=B,/G,/ | %89
 z/ G,/C/D/ E/C/_A,/G,/ ^F,/E/D/C/ D/B,/G,/=F,/ | %90
 z/ E,/G,/=B,/ C/E/_A,/G,/ z/ D,/^F,/=A,/ C/E/^F/A/ | z/ D,/G,/B,/ D/^F/G/B/ z/ E,/G,/C/ E/G/A/c/ | %92
 z/ c/A/D/ ^C/B/A/=C/ =B,/_A/G/_B,/ A,/G/F/_A,/ | %93
 G,/F/E/G,/ ^F,/E/D/=F,/ =E,/D/C/=B,/ C/_E,/D,/C,/ | %94
 ^F/F/4G/4A/4F/4G/4A/4 E/4C/4D/4E/4A,/4B,/4C/4A,/4 B,/4C/4^F,/4G,/4A,/4F,/4G,/4A,/4 B,G | %95
 G(7:4:7G/4A/4G/4^F/4G/4=E/4F/4 F>G G4 |] %96
V:2
 z8 | z8 | E,2 E,D,/C,/ z D,,D,,D,, | D,C,/B,,/ C,A,, B,,3 C, | D,3 G,, C,,C,C,C, | %5
 C,B,,/A,,/ B,,G,, A,,2 D,2 | z G,,G,,G,, G,,F,/E,/ F,D, | E,4 D,4 | D,4 G,,4 | C,4 F,,4 | %10
 B,,4 z4 | D,4 D,2 E,2 | D,G,,G,,G,, E,2 F,F, | D,2 E,D, C,4 | C,2- C,/B,,/A,,/G,,/ A,,2 D,2 | %15
 G,,2 z2 z4 | z8 | z8 | z8 | z8 | z8 | z4 z A,A,A, | A,G,/F,/ G,=E, F,D,E,F, | %23
 G,F, =E,2 A,,2 D,D, | G,,3 A,, B,,3 G,, | A,,2 A,,2 D,D,D,D, | D,C,/B,,/ C,A,, B,,2 G,,2 | %27
 A,,3 D, C,3 A,, | D,4 D,4 | _A,,4 G,,2 F,2 | z2 z =E, E,2 D,2 | G,2 F,2 =E,2 E,2 | %32
 D,2 D,2 C,2 C,2 | _A,2 G,2- G,4 | F,2 z2 z4 | z8 | z2 z G, A,G,A,F, | G,F,G,=E, F,E,F,D, | %38
 =E,4 A,3 A, | D,4 D,4 | D,4 D,4 | D,4 D,4 | D,8 | D,4 A,2 D,2 | G,,4 D,2 G,,2 | C,4 G,,2 C,2 | %46
 F,4 E,4 | D,2 C,2 B,,2 _A,,2 | G,,4 G,,4 | G,,4 G,,4 | _A,4 A,4 | A,4 A,4 | z8 | %53
 z z/ G,/ G,G, G,F,/E,/ F,D, | E,3 E, D,2 G,2 | C,2 _A,,2 =A,,2 G,,2 | %56
 C,C,C,C,- C,B,,/A,,/ B,,G,, | A,,F,F,F,- F,E,/D,/ E,C, | D,2 G,2 C,2 F,2 | z B,,B,,B,, F,4 | %60
 z C,C,C, G,,4 | F,2 E,2 D,2 C,2 | B,,B,,B,,B,, G,,2 A,,B,, | C,D,D,D, G,,2 A,,B,, | %64
 E,2 F,3 D,/E,/ F,2 | B,,/ z/ z z2 z4 | E,/ z/ z z2 z4 | D,2 G,,2 D,2 E,2 | B,,2 C,2 G,,2 C,2 | %69
 D,4 z4 | D,4 D,4 | D,4 D,4 | D,4 D,4 | D,4 D,4 | D,4 D,4 | D,3 B, G,3 A, | ^F,3 G, E,2 =E,2 | %77
 D,4 C,4 | B,,4 A,,4 | F,4 E,4 | A,,8 | D,2 =B,,2 C,4 | D,4 D,4 | G,4 A,B,B,B, | A,2 A,2 G,2 G,2 | %85
 A,,B,,/A,,/ B,,D, E,3 E, | D,3 D, D,3 D, | E,D,D,^C, D,2 D,2 | G,,4 C,2 D,2 | G,,2 C,2 D,4 | %90
 G,,4 A,,4 | B,,4 C,4 | D,8- | D,8 | D,2 z2 z2 ^C,B,, | A,2 A,2 [G,B,]4 |] %96
V:3
 x8 | z G,G,G, G,F,/E,/ F,D, | z4 D,2 ^F,2 | G,2 G,^F, G,3 B, | A,3 =B, C2 G,2 | %5
 G,2 G,F, =E,2 ^F,2 | G,2 B,2 A,2 A,2 | A,G,/=B,/ C/D/E/C/ ^F/E/D/C/ _B,/G/A,/G,/ | %8
 z/ A,/^C/=E/ F/A/D/=C/ =B,/D/F/_A/ G/F/_E/D/ | x8 | x8 | x8 | D2 DD- D2 CC- | %13
 C2 B,=B, G,/F,/F,/E,/ E,/D,/D,/C,/ | x8 | G, z z2 z4 | z GGG GF/=E/ FD | EE/D/ EF/E/ D2 GG | %18
 GFFF FE/D/ EC | DD/C/ DE/D/ C2 F2- | FE/D/ EF/E/ D2 G2- | GF/=E/ FG/F/ E2 E2 | D2 ^C2 DDDD | %23
 DD D^C/=B,/ C2 DD | B,3 A,- A,G,/F,/ G,=E, | F,/=E,/D,/E,/ E,2 F,2 F,2 | =E,2 E,^F, G,G,G,G, | %27
 G,F,/E,/ F,D, E,4 | ^F,2 G,2- G,=F,/=E,/ F,G,/F,/ | =E, z z2 E,2 D2 | D3 D ^C3 D | D2 D2 D2 ^C2 | %32
 C2 =B,2 _B,2 A,2 | DEE^C C3 C | D3 G F2 ^F2 | GFF=E EFF^C | ^CA,DD D2 D2 | ^CCCC D4 | %38
 D^CD=B, C3 C | D^CD=E FGFE | D^CD=E FEFD | =EDEF GFGF | =EDEF GFGE | x8 | x8 | x8 | x8 | x8 | x8 | %49
 x8 | x8 | x8 | G,/ z/ z z2 z/ _B/_A/^F/ G/=F/=E/F/ | [=B,D] z E4 DF | F/D=B,/ CC C2 B,2 | %55
 G,2 F,2 ^F,2 G,2 | [E,G,]2 z2 D,3 =E, | F,4 G,2 C2 | CB,/A,/ B,2 G,2 F,2 | DDDD DC/B,/ CD | %60
 EEEE ED/C/ DE- | ED-DC CB,- B,/C/A, | B,F,F,F, F,G,/F,/ E,D, | F,B,B,B, B,2 F,F, | D2 C2 B,2 CF, | %65
 x8 | x8 | x8 | x8 | x8 | x8 | x8 | x8 | x8 | x8 | DDDD E3 E | D3 D D2 ^C2 | C2 B,2 B,2 A,2 | %78
 A,2 G,2 G,2 F,2 | x8 | x8 | z2 F,2 E,E,/D,/ E,2 | ^F,A,/F,/ A,2 z G,/F,/ G,2 | [^C=E]4 D D3- | %84
 D2 D2 D2 z2 | F,3 D DC/B,/ CC | CE/C/ DA, B,E/C/ DD | A,B,B,A, B,C A,2 | x8 | x8 | x8 | x8 | x8 | %93
 x8 | [A,D]2 z2 z2 G,[^C=E] | D2 z2 D4 |] %96
V:4
 x8 | x8 | x8 | x8 | x8 | x8 | x8 | x8 | x8 | x8 | x8 | x8 | x8 | x8 | x8 | x8 | x8 | x8 | x8 | %19
 x8 | x8 | x8 | x8 | x8 | x8 | x8 | x8 | x8 | x8 | x8 | B,,4 A,,2 z2 | x8 | x8 | %33
 B,,2 B,,2 A,,3 A,, | A,,3 A, A,4 | x8 | x8 | x8 | x8 | x8 | x8 | x8 | x8 | x8 | x8 | x8 | x8 | %47
 x8 | x8 | x8 | x8 | x8 | x8 | !fermata!G,, z z2 G,,4 | G,,8 | x8 | x8 | x8 | x8 | x8 | x8 | x8 | %62
 x8 | x8 | x8 | x8 | x8 | x8 | x8 | x8 | x8 | x8 | x8 | x8 | x8 | x8 | x8 | x8 | x8 | G,,8 | x8 | %81
 x8 | x8 | =E,4 D,D,D,D, | D,C,/B,,/ C,A,, =B,,C,/B,,/ C,G,, | x8 | x8 | x8 | x8 | x8 | x8 | x8 | %92
 x8 | x8 | x8 | D,2 D,2 G,,4 |] %96

